X:59
T:Ballydesmond Polka
M:2/4
L:1/8
S:Ador (x3)
R:Polka
K:Ador
"Am"EA A>B | "C"cd "Am"e2 | "G"G>F GA | "Em"GE ED | "Am"EA A>B | "C"cd "
Am"e>f | "G"ge "Em"dB | "Am"BA A2 :|!
|: "Am"a>g ab | ag ef | "G"g>f ga | "Em"ge ed | "Am"a>g ab | ag ef | "G"
ge "Em"dB | "Am"BA A2 :||
